X:1
T:Title
%%score { ( 1 3 ) | ( 2 4 ) }
L:1/8
Q:1/4=108
M:4/4
K:F
V:1 treble nm="Grand Piano"
V:3 treble 
V:2 bass 
V:4 bass 
V:1
 c2 A2 c2 E2 | [Ec][EB][EG][E_A] =A4 | A2 E2 G2 F2 | z4 [Ec]4 | c2 A2 c2 E2 | %5
w: A.~H.~Ackley * * *|||||
 [Ec][EB][EG][E_A] =A4 | GA=Bc d^cdG |[M:7/8] [Ec]2 c2 z z2 |[M:1/8] [Ec] | %9
w: ||||
[M:4/4] [Fd]2 [Gc]2 A<F E>F | [EB]8 | [Be]2 [Bd]2 [EB]<G ^F>G | c6 z2 | [Gf]2 c2 B<A GF | %14
w: |||||
 [Fe]>[Fd] [F^c][Fd] G2 GA | cBed c<f [EG]>[Ec] | [CF]6 z2 |] %17
w: |||
V:2
 [F,A,F]2 [F,CF]2 [G,B,E]2 [G,B,C]2 | [C,G,][C,G,][C,C][C,C] [F,CF]4 | %2
 [A,^CE]2 [^C,A,]2 [D,A,E]2 [D,A,D]2 | [G,=B,F][G,B,F][G,CF][G,DF][K:bass] C2 z2 | %4
 [F,A,F]2 [F,CF]2 [G,B,E]2 [G,B,C]2 | [C,G,][C,G,][C,C][C,C][K:treble] [F,CF]4 | %6
 [G,=B,F][G,CF][G,DF][G,A,F] [G,B,F][G,_B,F][G,=B,F][G,B,F] |[M:7/8][K:bass] z G, [C,A,]2 [C,B,]3 | %8
[M:1/8] [C,B,] |[M:4/4] [F,A,]2 [F,A,]2 [F,CF]<[F,A,C] [G,B,C]>[F,A,C] | G,C,E,G, C3 [C,C] | %11
 [C,C]2 [C,C]2 [C,G,]<[K:treble][CE] [A,C_E]>[B,C=E] | .[A,C]2 z2 z4[K:bass] | %13
 [F,C]2 [F,A,F]2 [F,DF]<[F,CF] [F,B,E][F,A,] | %14
 [B,,B,]>[B,,B,] [B,,B,][B,,B,][K:treble] [B,D]2 [B,D][A,D^F] | %15
 [G,DA][G,DG][_A,=B,F][A,B,F] [=A,CF]<[CA][K:bass] [C,_B,]>[C,B,] | [F,A,]6 z2 |] %17
V:3
 x8 | x8 | x8 | AGA=B z2 B,2 | x8 | x8 | x8 |[M:7/8] C z F ^F [Gc]3 |[M:1/8] x |[M:4/4] x8 | %10
 C4 z2 z [Ec] | x8 | z DCB, A,2 [CAc]2 | x8 | x8 | x8 | x8 |] %17
V:4
 x8 | x8 | x8 | z4[K:bass] C,4 | x8 | x4[K:treble] x4 | x8 |[M:7/8][K:bass] C,2 z z z z2 | %8
[M:1/8] x |[M:4/4] x8 | x8 | x9/2[K:treble] x7/2 | F-[B,F-][A,F-][G,F-] [F,F]2[K:bass] F,2 | x8 | %14
 x4[K:treble] x4 | x6[K:bass] x2 | x8 |] %17

